X:1
T:Title
%%score ( 1 2 ) ( 3 4 )
L:1/8
Q:1/4=100
M:4/4
K:Eb
V:1 treble nm="Grand Piano, Soprano"
V:2 treble 
V:3 bass nm="Choir Pad, Fear Not"
V:4 bass 
V:1
 E2 E2 [DF]2 [DF]2 | [EG]>[FA] [GB]>[EG] E4 | F4 z4 | F4 z4 | E2 E2 [DF]2 [DF]2 | %5
w: By~Edmund~Simon~Lorenz * * *|||||
 [EG]>[FA] [GB]>[EG] E4 | F4 z4 | F4 z4 | [Ec]>[Ec] [Ec]>[Ec] [Ec]2 [Ec]2 | %9
w: ||||
 [Ec]2 [EB]2 [EB]2 [EG]2 | [FA]>[FA] [FA]>[FA] [FA]2 [FA]2 | [EA]2 [EG]2 [EG]2 [EB]2 | %12
w: |||
 [Ec]>[Ec] [Ec]>[Ec] [Ec]2 [Ec]2 | [Ec]2 [EB]2 [EB]2 [EG]2 | F4 z4 | F4 z4 | z8 |] %17
w: |||||
V:2
 x8 | x8 | D3- [DG] E2 [EG]2 | D3- [DG] E2 z2 | x8 | x8 | D3- [DG] E2 [EG]2 | D3- [DG] E2 z2 | x8 | %9
 x8 | x8 | x8 | x8 | x8 | D3- [DG] E2 [EG]2 | D3- [DG] E4- | E4 z4 |] %17
V:3
 [E,G,]2 [E,G,]2 [B,,B,]2 [B,,B,]2 | [E,B,]>[E,B,] [E,B,]>[E,B,] [E,G,]4 | A,3 B, [E,G,]2 [E,B,]2 | %3
 A,3 B, [E,G,]2 z2 | [E,G,]2 [E,G,]2 [B,,B,]2 [B,,B,]2 | [E,B,]>[E,B,] [E,B,]>[E,B,] [E,G,]4 | %6
 A,3 B, [E,G,]2 [E,B,]2 | A,3 B, [E,G,]2 z2 | A,>A, A,>A, A,2 A,2 | %9
 [E,A,]2 [E,G,]2 [E,G,]2 [E,B,]2 | [B,,B,]>[B,,B,] [B,,B,]>[B,,B,] [B,,B,]2 [B,,B,]2 | %11
 [E,C]2 [E,B,]2 [E,B,]2 [E,G,]2 | A,>A, A,>A, A,2 A,2 | [E,A,]2 [E,G,]2 [E,G,]2 [E,B,]2 | %14
 A,3 B, [E,G,]2 [E,B,]2 | A,3 B, [E,G,]4- | [E,G,]4 z4 |] %17
V:4
 x8 | x8 | B,,4 z4 | B,,4 z4 | x8 | x8 | B,,4 z4 | B,,4 z4 | x8 | x8 | x8 | x8 | x8 | x8 | %14
 B,,4 z4 | B,,4 z4 | x8 |] %17

